X: 30361
T: SCOTCH DANCE
C:
%R: reel
B: Elias Howe "The Musician's Companion" Part 3 1844 p.36 #1
S: http://imslp.org/wiki/The_Musician's_Companion_(Howe,_Elias)
S: https://archive.org/stream/firstthirdpartof03howe/#page/66/mode/1up
Z: 2016 John Chambers <jc:trillian.mit.edu>
M: 2/4
L: 1/16
K: Gmix
% - - - - - - - - - - - - - - - - - - - - - - - - -
|:\
G2GA GFEF | G2c2G2 zG | A2AB AGFE | FGAB cBcd |\
.e2(fe) .d2(ed) | cBcd efed | c2A2 A2(fe) |1 dcBA GFEF :|2 dcBA G4 |]
|:\
e2ef e2ed | cdef g2e2 | d2de d2dc | Bcde f2ef |\
g2e2 d2ed | cBcd efed | c2A2A2 fe | dcBA G4 :|
% - - - - - - - - - - - - - - - - - - - - - - - - -
